data/sheikah/h.svg

<!-- Generated by IcoMoon.io -->
<svg version="1.1" xmlns="http://www.w3.org/2000/svg" width="1024" height="1024" viewBox="0 0 1024 1024">
<title></title>
<g id="icomoon-ignore">
</g>
<path d="M153.5 153.5h119.5v119.5h-119.5v-119.5zM352.5 153.5h119.5v119.5h-119.5v-119.5zM552 153.5h119.5v119.5h-119.5v-119.5zM751 153.5h119.5v119.5h-119.5v-119.5zM273 870.5l-119.5-119.5v-279l119.5-119.5h478l119.5 119.5v279l-119.5 119.5v-398.5h-478v398.5zM352.5 870.5v-199l119.5-119.5h80l119.5 119.5v199h-119.5v-199h-80v199h-119.5z"></path>
</svg>

<svg xmlns="http://www.w3.org/2000/svg" width="1024" height="1024" viewBox="0 0 1024 1024">
  <title/>
  <path d="M153.5 153.5H273V273H153.5zm199 0H472V273H352.5zm199.5 0h119.5V273H552zm199 0h119.5V273H751zm-478 717L153.5 751V472L273 352.5h478L870.5 472v279L751 870.5V472H273zm79.5 0v-199L472 552h80l119.5 119.5v199H552v-199h-80v199z"/>
</svg>
